src/static/logos/drip.svg

<?xml version="1.0" encoding="UTF-8" standalone="no"?>
<svg width="512px" height="245px" viewBox="0 0 512 245" version="1.1" xmlns="http://www.w3.org/2000/svg" xmlns:xlink="http://www.w3.org/1999/xlink" preserveAspectRatio="xMidYMid">
    <defs>
        <linearGradient x1="49.9460829%" y1="100.009982%" x2="49.9460829%" y2="-6.33282296e-15%" id="linearGradient-1">
            <stop stop-color="#2746F1" offset="0%"></stop>
            <stop stop-color="#61B7F5" offset="100%"></stop>
        </linearGradient>
        <linearGradient x1="49.9403846%" y1="99.9612663%" x2="49.9403846%" y2="0.0489757914%" id="linearGradient-2">
            <stop stop-color="#275AF1" offset="0%"></stop>
            <stop stop-color="#336DF2" offset="15.82%"></stop>
            <stop stop-color="#4C92F4" offset="52.28%"></stop>
            <stop stop-color="#5BA9F5" offset="81.62%"></stop>
            <stop stop-color="#61B2F5" offset="100%"></stop>
        </linearGradient>
    </defs>
	<g>
		<path d="M0,37 L72.8857645,37 C120.976372,37.1999609 156.769381,65.6943956 156.769381,118.484085 C156.769381,170.873853 120.876391,199.568248 72.8857645,199.568248 L0,199.568248 L0,37 L0,37 Z M40.19215,71.8931849 L40.19215,164.675063 L71.2860769,164.675063 C97.5809412,164.675063 115.477446,148.178285 115.477446,118.484085 C115.477446,88.3899629 97.5809412,71.8931849 71.2860769,71.8931849 L40.19215,71.8931849 L40.19215,71.8931849 Z M188.36321,117.584261 C188.36321,111.08553 187.163445,106.086507 180.664714,106.086507 C175.66569,106.086507 169.666862,108.486038 168.467096,109.185901 L167.267331,77.5920719 C168.267135,76.3923062 182.064441,72.2931068 196.961531,72.2931068 C211.758641,72.2931068 221.856669,77.7920328 226.155829,90.6895138 C232.154657,79.4917008 240.752978,72.2931068 256.549893,72.2931068 C268.247608,72.2931068 277.845733,76.5922671 278.745558,78.2919352 L273.746534,114.884788 C272.546768,113.18512 261.748877,109.385862 249.851201,109.385862 C235.054091,109.385862 229.755126,121.383519 228.55536,134.281 L228.55536,199.568248 L188.36321,199.568248 L188.36321,117.584261 L188.36321,117.584261 Z M350.731498,164.975005 C350.031634,165.674868 344.032806,168.27436 339.033782,168.27436 C332.535052,168.27436 331.335286,162.975395 331.335286,156.776606 L331.335286,74.5926577 L291.143136,74.5926577 L291.143136,166.674673 C291.143136,191.969732 302.64089,202.06776 322.437024,202.06776 C337.534075,202.06776 351.331381,197.7686 352.331185,196.768795 L350.731498,164.975005 Z M378.526069,244.559461 L378.526069,117.584261 C378.526069,110.885569 377.326303,106.086507 370.827573,106.086507 C365.828549,106.086507 359.829721,108.286077 358.629955,109.385862 L357.430189,77.3921109 C358.429994,76.6922476 372.027338,72.0931459 387.12439,72.0931459 C401.221636,72.0931459 411.319664,76.8922086 415.818785,89.0898262 C423.717243,79.2917399 435.91486,72.3930873 454.111306,72.3930873 C488.304628,72.3930873 512,99.3878149 512,137.380394 C512,174.873072 488.304628,201.96778 454.111306,201.96778 C439.014255,201.96778 426.816637,196.668815 418.718219,189.070299 L418.718219,244.559461 L378.526069,244.559461 L378.526069,244.559461 Z M418.618239,116.384495 L418.618239,158.276313 C424.617067,163.575278 433.71529,167.074595 442.513572,167.074595 C459.710213,167.074595 471.008006,155.57684 471.008006,137.380394 C471.008006,118.983988 460.010154,107.286272 442.513572,107.286272 C433.215388,107.286272 423.717243,111.385472 418.618239,116.384495 L418.618239,116.384495 Z" fill="#414042"></path>
		<g transform="translate(289.000000, 0.000000)">
			<path d="M22.4,56.1 C35.4,56.1 44.1,51.4 44.1,38.2 C44.1,33.3 42,26.9 37.3,20.4 C32.4,13.5 29.3,12.4 22.4,3.55271368e-15 C15.5,12.4 12.4,13.5 7.5,20.4 C2.8,26.9 0.7,33.3 0.7,38.2 C0.7,51.4 9.4,56.1 22.4,56.1 L22.4,56.1 Z M8.1,20.7 C12.8,14.1 15.8,13.1 22.4,1.2 C29,13.1 32,14.1 36.7,20.7 C41.2,26.9 43.2,33 43.2,37.7 C43.2,50.3 34.8,54.9 22.4,54.9 C10,54.9 1.6,50.4 1.6,37.7 C1.6,33 3.7,26.9 8.1,20.7 L8.1,20.7 Z" fill="url(#linearGradient-1)"></path>
			<path d="M22.4,55.4163462 C35.0384615,55.4163462 43.6,50.8298077 43.6,37.8855769 C43.6,33.0951923 41.5615385,26.8778846 36.975,20.5586538 C32.1846154,13.8317308 29.1269231,12.8125 22.4,0.683653846 C15.6730769,12.8125 12.6153846,13.8317308 7.825,20.5586538 C3.23846154,26.8778846 1.2,33.0951923 1.2,37.8855769 C1.2,50.8298077 9.76153846,55.4163462 22.4,55.4163462 L22.4,55.4163462 Z" fill="url(#linearGradient-2)"></path>
		</g>
	</g>
</svg>

<svg width="512" height="245" xmlns="http://www.w3.org/2000/svg" preserveAspectRatio="xMidYMid"><defs><linearGradient x1="49.946%" y1="100.01%" x2="49.946%" y2="0%" id="a"><stop stop-color="#2746F1" offset="0%"/><stop stop-color="#61B7F5" offset="100%"/></linearGradient><linearGradient x1="49.94%" y1="99.961%" x2="49.94%" y2=".049%" id="b"><stop stop-color="#275AF1" offset="0%"/><stop stop-color="#336DF2" offset="15.82%"/><stop stop-color="#4C92F4" offset="52.28%"/><stop stop-color="#5BA9F5" offset="81.62%"/><stop stop-color="#61B2F5" offset="100%"/></linearGradient></defs><path d="M0 37h72.886c48.09.2 83.883 28.694 83.883 81.484 0 52.39-35.893 81.084-83.883 81.084H0V37zm40.192 34.893v92.782h31.094c26.295 0 44.191-16.497 44.191-46.19 0-30.095-17.896-46.592-44.19-46.592H40.191zm148.171 45.691c0-6.498-1.2-11.497-7.698-11.497-5 0-10.998 2.399-12.198 3.099l-1.2-31.594c1-1.2 14.797-5.299 29.695-5.299 14.797 0 24.895 5.499 29.194 18.397 5.999-11.198 14.597-18.397 30.394-18.397 11.698 0 21.296 4.3 22.196 5.999l-5 36.593c-1.2-1.7-11.997-5.5-23.895-5.5-14.797 0-20.096 11.999-21.296 24.896v65.287h-40.192v-81.984zm162.368 47.391c-.7.7-6.698 3.3-11.697 3.3-6.499 0-7.699-5.3-7.699-11.498V74.593h-40.192v92.082c0 25.295 11.498 35.393 31.294 35.393 15.097 0 28.894-4.3 29.894-5.3l-1.6-31.793zm27.795 79.584V117.584c0-6.698-1.2-11.497-7.698-11.497-5 0-10.998 2.2-12.198 3.299l-1.2-31.994c1-.7 14.597-5.299 29.694-5.299 14.098 0 24.196 4.8 28.695 16.997 7.898-9.798 20.096-16.697 38.292-16.697 34.194 0 57.889 26.995 57.889 64.987 0 37.493-23.695 64.588-57.889 64.588-15.097 0-27.294-5.3-35.393-12.898v55.49h-40.192zm40.092-128.175v41.892c6 5.3 15.097 8.799 23.896 8.799 17.196 0 28.494-11.498 28.494-29.695 0-18.396-10.998-30.094-28.494-30.094-9.299 0-18.797 4.1-23.896 9.098z" fill="#414042"/><path d="M22.4 56.1c13 0 21.7-4.7 21.7-17.9 0-4.9-2.1-11.3-6.8-17.8-4.9-6.9-8-8-14.9-20.4-6.9 12.4-10 13.5-14.9 20.4C2.8 26.9.7 33.3.7 38.2c0 13.2 8.7 17.9 21.7 17.9zM8.1 20.7c4.7-6.6 7.7-7.6 14.3-19.5C29 13.1 32 14.1 36.7 20.7c4.5 6.2 6.5 12.3 6.5 17 0 12.6-8.4 17.2-20.8 17.2S1.6 50.4 1.6 37.7c0-4.7 2.1-10.8 6.5-17z" fill="url(#a)" transform="translate(289)"/><path d="M22.4 55.416c12.638 0 21.2-4.586 21.2-17.53 0-4.79-2.038-11.008-6.625-17.327-4.79-6.727-7.848-7.747-14.575-19.875-6.727 12.129-9.785 13.148-14.575 19.875C3.238 26.878 1.2 33.095 1.2 37.886c0 12.944 8.562 17.53 21.2 17.53z" fill="url(#b)" transform="translate(289)"/></svg>
